img/icons/tooltip/Show.svg

<svg width="20" height="20" viewBox="0 0 20 20" fill="none" xmlns="http://www.w3.org/2000/svg">
<path d="M2.98924 11.4824C4.47211 12.9566 7.05819 15 10.0004 15C12.9426 15 15.5284 12.9566 17.0113 11.4824L17.012 11.4817C17.4029 11.0931 17.5986 10.8985 17.7231 10.5169C17.812 10.2445 17.812 9.75549 17.7231 9.48313C17.5986 9.10146 17.4029 8.90689 17.0119 8.51821L17.0113 8.51759C15.5284 7.0434 12.9426 5 10.0004 5C7.05819 5 4.47211 7.0434 2.98924 8.51759C2.59786 8.90669 2.40215 9.10125 2.27757 9.48313C2.18873 9.75549 2.18873 10.2445 2.27757 10.5169C2.40214 10.8987 2.59784 11.0933 2.98919 11.4823L2.98924 11.4824Z" stroke="#8C8D92" stroke-width="2" stroke-linecap="round" stroke-linejoin="round"/>
</svg>

<svg width="20" height="20" fill="none" xmlns="http://www.w3.org/2000/svg"><path d="M2.99 11.482C4.471 12.957 7.057 15 10 15c2.943 0 5.528-2.043 7.011-3.518h.001c.39-.389.587-.583.711-.965a2.037 2.037 0 0 0 0-1.034c-.124-.382-.32-.576-.711-.965h0C15.527 7.043 12.941 5 10 5 7.058 5 4.472 7.043 2.99 8.518c-.392.389-.588.583-.712.965a2.038 2.038 0 0 0 0 1.034c.124.382.32.576.711.965h0Z" stroke="#8C8D92" stroke-width="2" stroke-linecap="round" stroke-linejoin="round"/></svg>
